app/assets/images/icons/active/spa.svg

<?xml version="1.0" encoding="UTF-8" standalone="no"?>
<svg width="32px" height="232px" viewBox="0 0 32 232" version="1.1" xmlns="http://www.w3.org/2000/svg" xmlns:xlink="http://www.w3.org/1999/xlink" xmlns:sketch="http://www.bohemiancoding.com/sketch/ns">
    <title>spa</title>
    <description>Created with Sketch (http://www.bohemiancoding.com/sketch)</description>
    <defs></defs>
    <g id="Hotel-facilities" stroke="none" stroke-width="1" fill="none" fill-rule="evenodd" sketch:type="MSPage">
        <path d="M22.9284403,141.215 L15.3774403,141.215 L12.2344403,141.698 L12.0004403,141.734 L9.80544028,142.069 L9.60044028,142.102 L6.61344028,142.561 L6.41044028,142.59 L2.82844028,143.139 C2.80344028,143.139 2.77944028,143.145 2.75644028,143.147 L2.53144028,143.174 C1.94144028,143.312 1.50044028,143.839 1.50044028,144.469 C1.50044028,145.205 2.09644028,145.801 2.82844028,145.801 L13.1524403,145.803 C12.9734403,145.512 12.8634403,145.171 12.8634403,144.807 C12.8634403,143.754 13.7214403,142.899 14.7714403,142.899 L18.9064403,142.899 L22.2584403,142.198 L22.4434403,143.088 L19.0004403,143.807 L14.7714403,143.807 C14.2214403,143.807 13.7754403,144.254 13.7754403,144.807 C13.7754403,145.352 14.2134403,145.795 14.7584403,145.803 L22.9474403,145.803 C24.2114403,145.793 25.2294403,144.773 25.2294403,143.512 C25.2294403,142.246 24.2014403,141.215 22.9284403,141.215 Z M2.04144028,146.702 C1.74444028,146.702 1.50044028,146.946 1.50044028,147.245 L1.50044028,147.969 C1.50044028,147.969 1.44744028,149 2.50444028,149 L29.4224403,149 C30.4844403,149 30.4304403,147.994 30.4304403,147.994 L30.4304403,145.801 C30.4304403,145.801 30.3404403,145.1 29.5234403,145.1 L26.8964403,145.1 C25.9984403,145.1 25.2564403,146.702 23.5414403,146.702 L2.04144028,146.702 Z M25.6374403,141.835 C25.6374403,140.494 26.7254403,139.408 28.0654403,139.408 C29.4024403,139.408 30.4944403,140.494 30.4944403,141.835 C30.4944403,143.174 29.4024403,144.264 28.0654403,144.264 C26.7254403,144.264 25.6374403,143.174 25.6374403,141.835 Z M26.7564403,136.063 L25.4144403,132.234 C25.1544403,131.514 24.6544403,130.948 23.2424403,130.948 L17.0374403,130.948 C15.6254403,130.948 15.1254403,131.514 14.8634403,132.234 L13.5194403,136.063 C13.4204403,136.312 13.3674403,136.866 13.9144403,137.238 L17.0744403,139.321 C17.5334403,139.629 18.1564403,139.5 18.4594403,139.04 C18.7644403,138.577 18.6394403,137.956 18.1764403,137.651 L16.6564403,136.65 L15.6684403,135.997 L16.3754403,134.049 L17.3544403,134.049 L16.7794403,135.629 L18.6844403,136.886 C19.1094403,137.167 19.4024403,137.599 19.5084403,138.103 C19.6094403,138.604 19.5124403,139.117 19.2274403,139.544 C19.1134403,139.716 18.9774403,139.862 18.8224403,139.985 L21.4574403,139.985 C21.3034403,139.862 21.1644403,139.716 21.0514403,139.544 C20.7684403,139.117 20.6724403,138.604 20.7734403,138.103 C20.8754403,137.599 21.1704403,137.166 21.5964403,136.886 L23.5004403,135.629 L22.9284403,134.049 L23.9024403,134.049 L24.6094403,135.997 L23.6194403,136.65 L22.1034403,137.651 C21.6414403,137.956 21.5124403,138.577 21.8184403,139.04 C22.1234403,139.5 22.7444403,139.627 23.2034403,139.321 L26.3654403,137.238 C26.9104403,136.866 26.8554403,136.313 26.7564403,136.063 Z M19.9084403,125.026 C18.4494403,125.026 17.2664403,126.21 17.2664403,127.669 C17.2664403,129.129 18.4494403,130.313 19.9084403,130.313 C21.3674403,130.313 22.5534403,129.129 22.5534403,127.669 C22.5534403,126.21 21.3674403,125.026 19.9084403,125.026 Z M11.7604403,123.559 C10.2564403,123.893 8.86144028,124.757 7.88344028,126.106 C7.51444028,126.614 7.22944028,127.16 7.02544028,127.723 C7.30144028,128.576 7.41444028,129.478 7.35944028,130.385 C8.59844028,129.965 9.72144028,129.174 10.5474403,128.037 C11.5234403,126.69 11.9144403,125.095 11.7604403,123.559 Z M5.99844028,125.684 C6.24844028,126.03 6.46544028,126.399 6.65044028,126.776 C6.83644028,126.397 7.05144028,126.028 7.30144028,125.684 C7.58644028,125.291 7.91244028,124.932 8.26444028,124.608 C8.11144028,123.23 7.53544028,121.983 6.66244028,121 C5.78544028,121.989 5.21144028,123.242 5.06044028,124.63 C5.40244028,124.948 5.71744028,125.299 5.99844028,125.684 Z M6.63144028,130.582 C6.78544028,129.046 6.39444028,127.451 5.41844028,126.106 C4.44044028,124.757 3.04544028,123.893 1.53944028,123.559 C1.38544028,125.096 1.77544028,126.69 2.75244028,128.037 C3.72844028,129.385 5.12544028,130.25 6.63144028,130.582 Z M6.63144028,130.582" id="spa--white" fill="#206FAC" sketch:type="MSShapeGroup"></path>
        <path d="M22.9284403,101.215 L15.3774403,101.215 L12.2344403,101.698 L12.0004403,101.734 L9.80544028,102.069 L9.60044028,102.102 L6.61344028,102.561 L6.41044028,102.59 L2.82844028,103.139 C2.80344028,103.139 2.77944028,103.145 2.75644028,103.147 L2.53144028,103.174 C1.94144028,103.312 1.50044028,103.839 1.50044028,104.469 C1.50044028,105.205 2.09644028,105.801 2.82844028,105.801 L13.1524403,105.803 C12.9734403,105.512 12.8634403,105.171 12.8634403,104.807 C12.8634403,103.754 13.7214403,102.899 14.7714403,102.899 L18.9064403,102.899 L22.2584403,102.198 L22.4434403,103.088 L19.0004403,103.807 L14.7714403,103.807 C14.2214403,103.807 13.7754403,104.254 13.7754403,104.807 C13.7754403,105.352 14.2134403,105.795 14.7584403,105.803 L22.9474403,105.803 C24.2114403,105.793 25.2294403,104.773 25.2294403,103.512 C25.2294403,102.246 24.2014403,101.215 22.9284403,101.215 Z M2.04144028,106.702 C1.74444028,106.702 1.50044028,106.946 1.50044028,107.245 L1.50044028,107.969 C1.50044028,107.969 1.44744028,109 2.50444028,109 L29.4224403,109 C30.4844403,109 30.4304403,107.994 30.4304403,107.994 L30.4304403,105.801 C30.4304403,105.801 30.3404403,105.1 29.5234403,105.1 L26.8964403,105.1 C25.9984403,105.1 25.2564403,106.702 23.5414403,106.702 L2.04144028,106.702 Z M25.6374403,101.835 C25.6374403,100.494 26.7254403,99.408 28.0654403,99.408 C29.4024403,99.408 30.4944403,100.494 30.4944403,101.835 C30.4944403,103.174 29.4024403,104.264 28.0654403,104.264 C26.7254403,104.264 25.6374403,103.174 25.6374403,101.835 Z M26.7564403,96.063 L25.4144403,92.234 C25.1544403,91.514 24.6544403,90.948 23.2424403,90.948 L17.0374403,90.948 C15.6254403,90.948 15.1254403,91.514 14.8634403,92.234 L13.5194403,96.063 C13.4204403,96.312 13.3674403,96.866 13.9144403,97.238 L17.0744403,99.321 C17.5334403,99.629 18.1564403,99.5 18.4594403,99.04 C18.7644403,98.577 18.6394403,97.956 18.1764403,97.651 L16.6564403,96.65 L15.6684403,95.997 L16.3754403,94.049 L17.3544403,94.049 L16.7794403,95.629 L18.6844403,96.886 C19.1094403,97.167 19.4024403,97.599 19.5084403,98.103 C19.6094403,98.604 19.5124403,99.117 19.2274403,99.544 C19.1134403,99.716 18.9774403,99.862 18.8224403,99.985 L21.4574403,99.985 C21.3034403,99.862 21.1644403,99.716 21.0514403,99.544 C20.7684403,99.117 20.6724403,98.604 20.7734403,98.103 C20.8754403,97.599 21.1704403,97.166 21.5964403,96.886 L23.5004403,95.629 L22.9284403,94.049 L23.9024403,94.049 L24.6094403,95.997 L23.6194403,96.65 L22.1034403,97.651 C21.6414403,97.956 21.5124403,98.577 21.8184403,99.04 C22.1234403,99.5 22.7444403,99.627 23.2034403,99.321 L26.3654403,97.238 C26.9104403,96.866 26.8554403,96.313 26.7564403,96.063 Z M19.9084403,85.026 C18.4494403,85.026 17.2664403,86.21 17.2664403,87.669 C17.2664403,89.129 18.4494403,90.313 19.9084403,90.313 C21.3674403,90.313 22.5534403,89.129 22.5534403,87.669 C22.5534403,86.21 21.3674403,85.026 19.9084403,85.026 Z M11.7604403,83.559 C10.2564403,83.893 8.86144028,84.757 7.88344028,86.106 C7.51444028,86.614 7.22944028,87.16 7.02544028,87.723 C7.30144028,88.576 7.41444028,89.478 7.35944028,90.385 C8.59844028,89.965 9.72144028,89.174 10.5474403,88.037 C11.5234403,86.69 11.9144403,85.095 11.7604403,83.559 Z M5.99844028,85.684 C6.24844028,86.03 6.46544028,86.399 6.65044028,86.776 C6.83644028,86.397 7.05144028,86.028 7.30144028,85.684 C7.58644028,85.291 7.91244028,84.932 8.26444028,84.608 C8.11144028,83.23 7.53544028,81.983 6.66244028,81 C5.78544028,81.989 5.21144028,83.242 5.06044028,84.63 C5.40244028,84.948 5.71744028,85.299 5.99844028,85.684 Z M6.63144028,90.582 C6.78544028,89.046 6.39444028,87.451 5.41844028,86.106 C4.44044028,84.757 3.04544028,83.893 1.53944028,83.559 C1.38544028,85.096 1.77544028,86.69 2.75244028,88.037 C3.72844028,89.385 5.12544028,90.25 6.63144028,90.582 Z M6.63144028,90.582" id="spa--white" fill="#FFFFFF" sketch:type="MSShapeGroup"></path>
        <path d="M22.9284403,61.215 L15.3774403,61.215 L12.2344403,61.698 L12.0004403,61.734 L9.80544028,62.069 L9.60044028,62.102 L6.61344028,62.561 L6.41044028,62.59 L2.82844028,63.139 C2.80344028,63.139 2.77944028,63.145 2.75644028,63.147 L2.53144028,63.174 C1.94144028,63.312 1.50044028,63.839 1.50044028,64.469 C1.50044028,65.205 2.09644028,65.801 2.82844028,65.801 L13.1524403,65.803 C12.9734403,65.512 12.8634403,65.171 12.8634403,64.807 C12.8634403,63.754 13.7214403,62.899 14.7714403,62.899 L18.9064403,62.899 L22.2584403,62.198 L22.4434403,63.088 L19.0004403,63.807 L14.7714403,63.807 C14.2214403,63.807 13.7754403,64.254 13.7754403,64.807 C13.7754403,65.352 14.2134403,65.795 14.7584403,65.803 L22.9474403,65.803 C24.2114403,65.793 25.2294403,64.773 25.2294403,63.512 C25.2294403,62.246 24.2014403,61.215 22.9284403,61.215 Z M2.04144028,66.702 C1.74444028,66.702 1.50044028,66.946 1.50044028,67.245 L1.50044028,67.969 C1.50044028,67.969 1.44744028,69 2.50444028,69 L29.4224403,69 C30.4844403,69 30.4304403,67.994 30.4304403,67.994 L30.4304403,65.801 C30.4304403,65.801 30.3404403,65.1 29.5234403,65.1 L26.8964403,65.1 C25.9984403,65.1 25.2564403,66.702 23.5414403,66.702 L2.04144028,66.702 Z M25.6374403,61.835 C25.6374403,60.494 26.7254403,59.408 28.0654403,59.408 C29.4024403,59.408 30.4944403,60.494 30.4944403,61.835 C30.4944403,63.174 29.4024403,64.264 28.0654403,64.264 C26.7254403,64.264 25.6374403,63.174 25.6374403,61.835 Z M26.7564403,56.063 L25.4144403,52.234 C25.1544403,51.514 24.6544403,50.948 23.2424403,50.948 L17.0374403,50.948 C15.6254403,50.948 15.1254403,51.514 14.8634403,52.234 L13.5194403,56.063 C13.4204403,56.312 13.3674403,56.866 13.9144403,57.238 L17.0744403,59.321 C17.5334403,59.629 18.1564403,59.5 18.4594403,59.04 C18.7644403,58.577 18.6394403,57.956 18.1764403,57.651 L16.6564403,56.65 L15.6684403,55.997 L16.3754403,54.049 L17.3544403,54.049 L16.7794403,55.629 L18.6844403,56.886 C19.1094403,57.167 19.4024403,57.599 19.5084403,58.103 C19.6094403,58.604 19.5124403,59.117 19.2274403,59.544 C19.1134403,59.716 18.9774403,59.862 18.8224403,59.985 L21.4574403,59.985 C21.3034403,59.862 21.1644403,59.716 21.0514403,59.544 C20.7684403,59.117 20.6724403,58.604 20.7734403,58.103 C20.8754403,57.599 21.1704403,57.166 21.5964403,56.886 L23.5004403,55.629 L22.9284403,54.049 L23.9024403,54.049 L24.6094403,55.997 L23.6194403,56.65 L22.1034403,57.651 C21.6414403,57.956 21.5124403,58.577 21.8184403,59.04 C22.1234403,59.5 22.7444403,59.627 23.2034403,59.321 L26.3654403,57.238 C26.9104403,56.866 26.8554403,56.313 26.7564403,56.063 Z M19.9084403,45.026 C18.4494403,45.026 17.2664403,46.21 17.2664403,47.669 C17.2664403,49.129 18.4494403,50.313 19.9084403,50.313 C21.3674403,50.313 22.5534403,49.129 22.5534403,47.669 C22.5534403,46.21 21.3674403,45.026 19.9084403,45.026 Z M11.7604403,43.559 C10.2564403,43.893 8.86144028,44.757 7.88344028,46.106 C7.51444028,46.614 7.22944028,47.16 7.02544028,47.723 C7.30144028,48.576 7.41444028,49.478 7.35944028,50.385 C8.59844028,49.965 9.72144028,49.174 10.5474403,48.037 C11.5234403,46.69 11.9144403,45.095 11.7604403,43.559 Z M5.99844028,45.684 C6.24844028,46.03 6.46544028,46.399 6.65044028,46.776 C6.83644028,46.397 7.05144028,46.028 7.30144028,45.684 C7.58644028,45.291 7.91244028,44.932 8.26444028,44.608 C8.11144028,43.23 7.53544028,41.983 6.66244028,41 C5.78544028,41.989 5.21144028,43.242 5.06044028,44.63 C5.40244028,44.948 5.71744028,45.299 5.99844028,45.684 Z M6.63144028,50.582 C6.78544028,49.046 6.39444028,47.451 5.41844028,46.106 C4.44044028,44.757 3.04544028,43.893 1.53944028,43.559 C1.38544028,45.096 1.77544028,46.69 2.75244028,48.037 C3.72844028,49.385 5.12544028,50.25 6.63144028,50.582 Z M6.63144028,50.582" id="spa--light-grey" fill="#67737B" sketch:type="MSShapeGroup"></path>
        <path d="M22.9284403,21.215 L15.3774403,21.215 L12.2344403,21.698 L12.0004403,21.734 L9.80544028,22.069 L9.60044028,22.102 L6.61344028,22.561 L6.41044028,22.59 L2.82844028,23.139 C2.80344028,23.139 2.77944028,23.145 2.75644028,23.147 L2.53144028,23.174 C1.94144028,23.312 1.50044028,23.839 1.50044028,24.469 C1.50044028,25.205 2.09644028,25.801 2.82844028,25.801 L13.1524403,25.803 C12.9734403,25.512 12.8634403,25.171 12.8634403,24.807 C12.8634403,23.754 13.7214403,22.899 14.7714403,22.899 L18.9064403,22.899 L22.2584403,22.198 L22.4434403,23.088 L19.0004403,23.807 L14.7714403,23.807 C14.2214403,23.807 13.7754403,24.254 13.7754403,24.807 C13.7754403,25.352 14.2134403,25.795 14.7584403,25.803 L22.9474403,25.803 C24.2114403,25.793 25.2294403,24.773 25.2294403,23.512 C25.2294403,22.246 24.2014403,21.215 22.9284403,21.215 Z M2.04144028,26.702 C1.74444028,26.702 1.50044028,26.946 1.50044028,27.245 L1.50044028,27.969 C1.50044028,27.969 1.44744028,29 2.50444028,29 L29.4224403,29 C30.4844403,29 30.4304403,27.994 30.4304403,27.994 L30.4304403,25.801 C30.4304403,25.801 30.3404403,25.1 29.5234403,25.1 L26.8964403,25.1 C25.9984403,25.1 25.2564403,26.702 23.5414403,26.702 L2.04144028,26.702 Z M25.6374403,21.835 C25.6374403,20.494 26.7254403,19.408 28.0654403,19.408 C29.4024403,19.408 30.4944403,20.494 30.4944403,21.835 C30.4944403,23.174 29.4024403,24.264 28.0654403,24.264 C26.7254403,24.264 25.6374403,23.174 25.6374403,21.835 Z M26.7564403,16.063 L25.4144403,12.234 C25.1544403,11.514 24.6544403,10.948 23.2424403,10.948 L17.0374403,10.948 C15.6254403,10.948 15.1254403,11.514 14.8634403,12.234 L13.5194403,16.063 C13.4204403,16.312 13.3674403,16.866 13.9144403,17.238 L17.0744403,19.321 C17.5334403,19.629 18.1564403,19.5 18.4594403,19.04 C18.7644403,18.577 18.6394403,17.956 18.1764403,17.651 L16.6564403,16.65 L15.6684403,15.997 L16.3754403,14.049 L17.3544403,14.049 L16.7794403,15.629 L18.6844403,16.886 C19.1094403,17.167 19.4024403,17.599 19.5084403,18.103 C19.6094403,18.604 19.5124403,19.117 19.2274403,19.544 C19.1134403,19.716 18.9774403,19.862 18.8224403,19.985 L21.4574403,19.985 C21.3034403,19.862 21.1644403,19.716 21.0514403,19.544 C20.7684403,19.117 20.6724403,18.604 20.7734403,18.103 C20.8754403,17.599 21.1704403,17.166 21.5964403,16.886 L23.5004403,15.629 L22.9284403,14.049 L23.9024403,14.049 L24.6094403,15.997 L23.6194403,16.65 L22.1034403,17.651 C21.6414403,17.956 21.5124403,18.577 21.8184403,19.04 C22.1234403,19.5 22.7444403,19.627 23.2034403,19.321 L26.3654403,17.238 C26.9104403,16.866 26.8554403,16.313 26.7564403,16.063 Z M19.9084403,5.026 C18.4494403,5.026 17.2664403,6.21 17.2664403,7.669 C17.2664403,9.129 18.4494403,10.313 19.9084403,10.313 C21.3674403,10.313 22.5534403,9.129 22.5534403,7.669 C22.5534403,6.21 21.3674403,5.026 19.9084403,5.026 Z M11.7604403,3.559 C10.2564403,3.893 8.86144028,4.757 7.88344028,6.106 C7.51444028,6.614 7.22944028,7.16 7.02544028,7.723 C7.30144028,8.576 7.41444028,9.478 7.35944028,10.385 C8.59844028,9.965 9.72144028,9.174 10.5474403,8.037 C11.5234403,6.69 11.9144403,5.095 11.7604403,3.559 Z M5.99844028,5.684 C6.24844028,6.03 6.46544028,6.399 6.65044028,6.776 C6.83644028,6.397 7.05144028,6.028 7.30144028,5.684 C7.58644028,5.291 7.91244028,4.932 8.26444028,4.608 C8.11144028,3.23 7.53544028,1.983 6.66244028,1 C5.78544028,1.989 5.21144028,3.242 5.06044028,4.63 C5.40244028,4.948 5.71744028,5.299 5.99844028,5.684 Z M6.63144028,10.582 C6.78544028,9.046 6.39444028,7.451 5.41844028,6.106 C4.44044028,4.757 3.04544028,3.893 1.53944028,3.559 C1.38544028,5.096 1.77544028,6.69 2.75244028,8.037 C3.72844028,9.385 5.12544028,10.25 6.63144028,10.582 Z M6.63144028,10.582" id="spa--dark-grey" fill="#3A434E" sketch:type="MSShapeGroup"></path>
    </g>
</svg>

<svg width="32" height="232" viewBox="0 0 32 232" xmlns="http://www.w3.org/2000/svg" xmlns:sketch="http://www.bohemiancoding.com/sketch/ns"><title>spa</title><g sketch:type="MSPage" fill="none"><path d="M22.928 141.215h-7.551l-3.143.483-.234.036-2.195.335-.205.033-2.987.459-.203.029-3.582.549-.072.008-.225.027c-.59.138-1.031.665-1.031 1.295 0 .736.596 1.332 1.328 1.332l10.324.002c-.179-.291-.289-.632-.289-.996 0-1.053.858-1.908 1.908-1.908h4.135l3.352-.701.185.89-3.443.719h-4.229c-.55 0-.996.447-.996 1 0 .545.438.988.983.996h8.189c1.264-.01 2.282-1.03 2.282-2.291 0-1.266-1.028-2.297-2.301-2.297zm-20.887 5.487c-.297 0-.541.244-.541.543v.724s-.053 1.031 1.004 1.031h26.918c1.062 0 1.008-1.006 1.008-1.006v-2.193s-.09-.701-.907-.701h-2.627c-.898 0-1.64 1.602-3.355 1.602h-21.5zm23.596-4.867c0-1.341 1.088-2.427 2.428-2.427 1.337 0 2.429 1.086 2.429 2.427 0 1.339-1.092 2.429-2.429 2.429-1.34 0-2.428-1.09-2.428-2.429zm1.119-5.772l-1.342-3.829c-.26-.72-.76-1.286-2.172-1.286h-6.205c-1.412 0-1.912.566-2.174 1.286l-1.344 3.829c-.099.249-.152.803.395 1.175l3.16 2.083c.459.308 1.082.179 1.385-.281.305-.463.18-1.084-.283-1.389l-1.52-1.001-.988-.653.707-1.948h.979l-.575 1.58 1.905 1.257c.425.281.718.713.824 1.217.101.501.004 1.014-.281 1.441-.114.172-.25.318-.405.441h2.635c-.154-.123-.293-.269-.406-.441-.283-.427-.379-.94-.278-1.441.102-.504.397-.937.823-1.217l1.904-1.257-.572-1.58h.974l.707 1.948-.99.653-1.516 1.001c-.462.305-.591.926-.285 1.389.305.46.926.587 1.385.281l3.162-2.083c.545-.372.49-.925.391-1.175zm-6.848-11.037c-1.459 0-2.642 1.184-2.642 2.643 0 1.46 1.183 2.644 2.642 2.644 1.459 0 2.645-1.184 2.645-2.644 0-1.459-1.186-2.643-2.645-2.643zm-8.148-1.467c-1.504.334-2.899 1.198-3.877 2.547-.369.508-.654 1.054-.858 1.617.276.853.389 1.755.334 2.662 1.239-.42 2.362-1.211 3.188-2.348.976-1.347 1.367-2.942 1.213-4.478zm-5.762 2.125c.25.346.467.715.652 1.092.186-.379.401-.748.651-1.092.285-.393.611-.752.963-1.076-.153-1.378-.729-2.625-1.602-3.608-.877.989-1.451 2.242-1.602 3.63.342.318.657.669.938 1.054zm.633 4.898c.154-1.536-.237-3.131-1.213-4.476-.978-1.349-2.373-2.213-3.879-2.547-.154 1.537.236 3.131 1.213 4.478.976 1.348 2.373 2.213 3.879 2.545zm0 0" id="spa--white" fill="#206FAC" sketch:type="MSShapeGroup"/><path d="M22.928 101.215h-7.551l-3.143.483-.234.036-2.195.335-.205.033-2.987.459-.203.029-3.582.549-.072.008-.225.027c-.59.138-1.031.665-1.031 1.295 0 .736.596 1.332 1.328 1.332l10.324.002c-.179-.291-.289-.632-.289-.996 0-1.053.858-1.908 1.908-1.908h4.135l3.352-.701.185.89-3.443.719h-4.229c-.55 0-.996.447-.996 1 0 .545.438.988.983.996h8.189c1.264-.01 2.282-1.03 2.282-2.291 0-1.266-1.028-2.297-2.301-2.297zm-20.887 5.487c-.297 0-.541.244-.541.543v.724s-.053 1.031 1.004 1.031h26.918c1.062 0 1.008-1.006 1.008-1.006v-2.193s-.09-.701-.907-.701h-2.627c-.898 0-1.64 1.602-3.355 1.602h-21.5zm23.596-4.867c0-1.341 1.088-2.427 2.428-2.427 1.337 0 2.429 1.086 2.429 2.427 0 1.339-1.092 2.429-2.429 2.429-1.34 0-2.428-1.09-2.428-2.429zm1.119-5.772l-1.342-3.829c-.26-.72-.76-1.286-2.172-1.286h-6.205c-1.412 0-1.912.566-2.174 1.286l-1.344 3.829c-.099.249-.152.803.395 1.175l3.16 2.083c.459.308 1.082.179 1.385-.281.305-.463.18-1.084-.283-1.389l-1.52-1.001-.988-.653.707-1.948h.979l-.575 1.58 1.905 1.257c.425.281.718.713.824 1.217.101.501.004 1.014-.281 1.441-.114.172-.25.318-.405.441h2.635c-.154-.123-.293-.269-.406-.441-.283-.427-.379-.94-.278-1.441.102-.504.397-.937.823-1.217l1.904-1.257-.572-1.58h.974l.707 1.948-.99.653-1.516 1.001c-.462.305-.591.926-.285 1.389.305.46.926.587 1.385.281l3.162-2.083c.545-.372.49-.925.391-1.175zm-6.848-11.037c-1.459 0-2.642 1.184-2.642 2.643 0 1.46 1.183 2.644 2.642 2.644 1.459 0 2.645-1.184 2.645-2.644 0-1.459-1.186-2.643-2.645-2.643zm-8.148-1.467c-1.504.334-2.899 1.198-3.877 2.547-.369.508-.654 1.054-.858 1.617.276.853.389 1.755.334 2.662 1.239-.42 2.362-1.211 3.188-2.348.976-1.347 1.367-2.942 1.213-4.478zm-5.762 2.125c.25.346.467.715.652 1.092.186-.379.401-.748.651-1.092.285-.393.611-.752.963-1.076-.153-1.378-.729-2.625-1.602-3.608-.877.989-1.451 2.242-1.602 3.63.342.318.657.669.938 1.054zm.633 4.898c.154-1.536-.237-3.131-1.213-4.476-.978-1.349-2.373-2.213-3.879-2.547-.154 1.537.236 3.131 1.213 4.478.976 1.348 2.373 2.213 3.879 2.545zm0 0" fill="#fff" sketch:type="MSShapeGroup"/><path d="M22.928 61.215h-7.551l-3.143.483-.234.036-2.195.335-.205.033-2.987.459-.203.029-3.582.549-.072.008-.225.027c-.59.138-1.031.665-1.031 1.295 0 .736.596 1.332 1.328 1.332l10.324.002c-.179-.291-.289-.632-.289-.996 0-1.053.858-1.908 1.908-1.908h4.135l3.352-.701.185.89-3.443.719h-4.229c-.55 0-.996.447-.996 1 0 .545.438.988.983.996h8.189c1.264-.01 2.282-1.03 2.282-2.291 0-1.266-1.028-2.297-2.301-2.297zm-20.887 5.487c-.297 0-.541.244-.541.543v.724s-.053 1.031 1.004 1.031h26.918c1.062 0 1.008-1.006 1.008-1.006v-2.193s-.09-.701-.907-.701h-2.627c-.898 0-1.64 1.602-3.355 1.602h-21.5zm23.596-4.867c0-1.341 1.088-2.427 2.428-2.427 1.337 0 2.429 1.086 2.429 2.427 0 1.339-1.092 2.429-2.429 2.429-1.34 0-2.428-1.09-2.428-2.429zm1.119-5.772l-1.342-3.829c-.26-.72-.76-1.286-2.172-1.286h-6.205c-1.412 0-1.912.566-2.174 1.286l-1.344 3.829c-.099.249-.152.803.395 1.175l3.16 2.083c.459.308 1.082.179 1.385-.281.305-.463.18-1.084-.283-1.389l-1.52-1.001-.988-.653.707-1.948h.979l-.575 1.58 1.905 1.257c.425.281.718.713.824 1.217.101.501.004 1.014-.281 1.441-.114.172-.25.318-.405.441h2.635c-.154-.123-.293-.269-.406-.441-.283-.427-.379-.94-.278-1.441.102-.504.397-.937.823-1.217l1.904-1.257-.572-1.58h.974l.707 1.948-.99.653-1.516 1.001c-.462.305-.591.926-.285 1.389.305.46.926.587 1.385.281l3.162-2.083c.545-.372.49-.925.391-1.175zm-6.848-11.037c-1.459 0-2.642 1.184-2.642 2.643 0 1.46 1.183 2.644 2.642 2.644 1.459 0 2.645-1.184 2.645-2.644 0-1.459-1.186-2.643-2.645-2.643zm-8.148-1.467c-1.504.334-2.899 1.198-3.877 2.547-.369.508-.654 1.054-.858 1.617.276.853.389 1.755.334 2.662 1.239-.42 2.362-1.211 3.188-2.348.976-1.347 1.367-2.942 1.213-4.478zm-5.762 2.125c.25.346.467.715.652 1.092.186-.379.401-.748.651-1.092.285-.393.611-.752.963-1.076-.153-1.378-.729-2.625-1.602-3.608-.877.989-1.451 2.242-1.602 3.63.342.318.657.669.938 1.054zm.633 4.898c.154-1.536-.237-3.131-1.213-4.476-.978-1.349-2.373-2.213-3.879-2.547-.154 1.537.236 3.131 1.213 4.478.976 1.348 2.373 2.213 3.879 2.545zm0 0" fill="#67737B" sketch:type="MSShapeGroup"/><path d="M22.928 21.215h-7.551l-3.143.483-.234.036-2.195.335-.205.033-2.987.459-.203.029-3.582.549-.072.008-.225.027c-.59.138-1.031.665-1.031 1.295 0 .736.596 1.332 1.328 1.332l10.324.002c-.179-.291-.289-.632-.289-.996 0-1.053.858-1.908 1.908-1.908h4.135l3.352-.701.185.89-3.443.719h-4.229c-.55 0-.996.447-.996 1 0 .545.438.988.983.996h8.189c1.264-.01 2.282-1.03 2.282-2.291 0-1.266-1.028-2.297-2.301-2.297zm-20.887 5.487c-.297 0-.541.244-.541.543v.724s-.053 1.031 1.004 1.031h26.918c1.062 0 1.008-1.006 1.008-1.006v-2.193s-.09-.701-.907-.701h-2.627c-.898 0-1.64 1.602-3.355 1.602h-21.5zm23.596-4.867c0-1.341 1.088-2.427 2.428-2.427 1.337 0 2.429 1.086 2.429 2.427 0 1.339-1.092 2.429-2.429 2.429-1.34 0-2.428-1.09-2.428-2.429zm1.119-5.772l-1.342-3.829c-.26-.72-.76-1.286-2.172-1.286h-6.205c-1.412 0-1.912.566-2.174 1.286l-1.344 3.829c-.099.249-.152.803.395 1.175l3.16 2.083c.459.308 1.082.179 1.385-.281.305-.463.18-1.084-.283-1.389l-1.52-1.001-.988-.653.707-1.948h.979l-.575 1.58 1.905 1.257c.425.281.718.713.824 1.217.101.501.004 1.014-.281 1.441-.114.172-.25.318-.405.441h2.635c-.154-.123-.293-.269-.406-.441-.283-.427-.379-.94-.278-1.441.102-.504.397-.937.823-1.217l1.904-1.257-.572-1.58h.974l.707 1.948-.99.653-1.516 1.001c-.462.305-.591.926-.285 1.389.305.46.926.587 1.385.281l3.162-2.083c.545-.372.49-.925.391-1.175zm-6.848-11.037c-1.459 0-2.642 1.184-2.642 2.643 0 1.46 1.183 2.644 2.642 2.644 1.459 0 2.645-1.184 2.645-2.644 0-1.459-1.186-2.643-2.645-2.643zm-8.148-1.467c-1.504.334-2.899 1.198-3.877 2.547-.369.508-.654 1.054-.858 1.617.276.853.389 1.755.334 2.662 1.239-.42 2.362-1.211 3.188-2.348.976-1.347 1.367-2.942 1.213-4.478zm-5.762 2.125c.25.346.467.715.652 1.092.186-.379.401-.748.651-1.092.285-.393.611-.752.963-1.076-.153-1.378-.729-2.625-1.602-3.608-.877.989-1.451 2.242-1.602 3.63.342.318.657.669.938 1.054zm.633 4.898c.154-1.536-.237-3.131-1.213-4.476-.978-1.349-2.373-2.213-3.879-2.547-.154 1.537.236 3.131 1.213 4.478.976 1.348 2.373 2.213 3.879 2.545zm0 0" fill="#3A434E" sketch:type="MSShapeGroup"/></g></svg>
